public/new/frame-98.svg

<svg fill="none" height="32" viewBox="0 0 32 32" width="32" xmlns="http://www.w3.org/2000/svg"><rect fill="#1d202f" height="32" rx="8" width="32"/><path d="m20.6381 20.0446c-.7304 0-1.3839.2945-1.8837.7559l-6.8523-4.074c.048-.2258.0864-.4516.0864-.6872s-.0384-.4614-.0864-.6872l6.7755-4.0348c.5189.4908 1.2013.7952 1.9605.7952 1.5954 0 2.8832-1.3155 2.8832-2.94516 0-1.62963-1.2878-2.94511-2.8832-2.94511-1.5953 0-2.8832 1.31548-2.8832 2.94511 0 .23561.0385.4614.0865.6872l-6.7755 4.03476c-.5189-.4908-1.2013-.7951-1.96054-.7951-1.59537 0-2.88319 1.3154-2.88319 2.9451 0 1.6296 1.28782 2.9451 2.88319 2.9451.75924 0 1.44164-.3043 1.96054-.7952l6.8428 4.0839c-.0481.2062-.0769.4221-.0769.6381 0 1.5806 1.259 2.8666 2.8063 2.8666s2.8063-1.286 2.8063-2.8666c0-1.5805-1.259-2.8666-2.8063-2.8666z" fill="#434665"/></svg>

<svg width="32" height="32" viewBox="0 0 32 32" fill="none" xmlns="http://www.w3.org/2000/svg">
<rect width="32" height="32" rx="8" fill="#1D202F"/>
<path d="M20.6381 20.0446C19.9077 20.0446 19.2542 20.3391 18.7544 20.8005L11.9021 16.7265C11.9501 16.5007 11.9885 16.2749 11.9885 16.0393C11.9885 15.8037 11.9501 15.5779 11.9021 15.3521L18.6776 11.3173C19.1965 11.8081 19.8789 12.1125 20.6381 12.1125C22.2335 12.1125 23.5213 10.797 23.5213 9.16734C23.5213 7.53771 22.2335 6.22223 20.6381 6.22223C19.0428 6.22223 17.7549 7.53771 17.7549 9.16734C17.7549 9.40295 17.7934 9.62874 17.8414 9.85454L11.0659 13.8893C10.547 13.3985 9.8646 13.0942 9.10536 13.0942C7.50999 13.0942 6.22217 14.4096 6.22217 16.0393C6.22217 17.6689 7.50999 18.9844 9.10536 18.9844C9.8646 18.9844 10.547 18.6801 11.0659 18.1892L17.9087 22.2731C17.8606 22.4793 17.8318 22.6952 17.8318 22.9112C17.8318 24.4918 19.0908 25.7778 20.6381 25.7778C22.1854 25.7778 23.4444 24.4918 23.4444 22.9112C23.4444 21.3307 22.1854 20.0446 20.6381 20.0446Z" fill="#434665"/>
</svg>
